X: 3350
T: ACROBAT'S HORNPIPE
R: Hornpipe.
%R: hornpipe, reel
B: James Kerr "Merry Melodies" v.3 p.38 #350
Z: 2016 John Chambers <jc:trillian.mit.edu>
M: C
L: 1/8
K: A
e2 |\
a2ed (cB)Ac | (BA)GB A2AF |\
EFGA BcdB | cBAc B2e2 |\
a2ed (cB)Ac | (BA)GB A2AF |\
EFGA BcdB cABG A2 H:|
|: (ef) |\
e(cAc) ecfc | e(cAc) ecac |\
e(cAc) ecfc | EFGA Bcd^d |\
e(cAc) ecfc | e(cAc) ecac |\
agfe dcBA | GABc "_D.C."d2 :|

%%sep 1 1 500
%%sep 1 1 500

